!!!OTL: ES HATTEN SICH SIEBN UND SIEBZIG SCHNEIDER
!!!ARE: Europa, Mitteleuropa, Deutschland, Hessen, Darmstadt
!!!SCT: E1636
!!!YEM: Copyright 1995, estate of Helmut Schaffrath.
**kern
*ICvox
*Ivox
*M6/8
*k[f#]
*G:
{8d
=1
8d
8g
8g
8g
8g
8a
=2
8g
8f#
8e
4d}
{8g
=3
8e
8e
8e
8e
8e
8g
=4
8d
8d
8d
4B}
{8d
=5
8.g
16g
8g
8a
8g
8a
=6
4.b}
{4.dd
=7
8.b
16cc
8b
8a
8g
8a
=8
4.g
4r}
==
!!!AGN: Staende -, Handwerker - Lied, Schneider
!!!ONB: ESAC (Essen Associative Code) Database: ERK3
!!!AMT: compound duple
!!!AIN: vox
!!!EED: Helmut Schaffrath
!!!EEV: 1.0
*-
